X: 16301
T: Grinders, The
R: slip jig
M: 9/8
K: Gmajor
|:B|ABA A2 B G3|ABA A2 B d2 B|ABA A2 B G3|GAG GAB d2:|
B|gfg edc BAG|gfg efg a2 f|gfg edc BAG|ABA A2 B d2 B|
gfg edc BAG|gfg efg a2 a|bag agf gfe|dBA A2 B d2||

